;FLAVOR:Marlin
;TIME:5455
;Filament used: 5.45944m
;Layer height: 0.28
;MINX:65.388
;MINY:48.594
;MINZ:0.28
;MAXX:164.478
;MAXY:187.545
;MAXZ:1.12
;Generated with Cura_SteamEngine 5.2.1
M140 S50
M105
M190 S50
M104 S200
M105
M109 S200
M82 ;absolute extrusion mode
; Ender 3 Custom Start G-code
G92 E0 ; Reset Extruder
G28 ; Home all axes
G1 Z2.0 F3000 ; Move Z Axis up little to prevent scratching of Heat Bed
G1 X0.1 Y20 Z0.3 F5000.0 ; Move to start position
G1 X0.1 Y200.0 Z0.3 F1500.0 E15 ; Draw the first line
G1 X0.4 Y200.0 Z0.3 F5000.0 ; Move to side a little
G1 X0.4 Y20 Z0.3 F1500.0 E30 ; Draw the second line
G92 E0 ; Reset Extruder
G1 Z2.0 F3000 ; Move Z Axis up little to prevent scratching of Heat Bed
G1 X5 Y20 Z0.3 F5000.0 ; Move over to prevent blob squish
G92 E0
G92 E0
G1 F2700 E-5
;LAYER_COUNT:4
;LAYER:0
M107
;MESH:LensProtectionPLA.stl
G0 F6000 X114.52 Y187.053 Z0.28
;TYPE:WALL-INNER
G1 F2700 E0
G1 F1200 X122.934 Y187.145 E0.39181
G1 X124.985 Y187.143 E0.48732
G1 X128.848 Y186.99 E0.66734
G1 X132.781 Y186.543 E0.85165
G1 X134.029 Y186.341 E0.91052
G1 X137.427 Y185.629 E1.07218
G1 X140.767 Y184.653 E1.23421
G1 X141.064 Y184.545 E1.24893
G1 X144.023 Y183.325 E1.39796
G1 X144.305 Y183.193 E1.41246
G1 X147.298 Y181.467 E1.57334
G1 X148.619 Y180.491 E1.64982
G1 X148.878 Y180.29 E1.66508
G1 X150.077 Y179.251 E1.73896
G1 X151.444 Y177.871 E1.82941
G1 X152.491 Y176.631 E1.90498
G1 X152.689 Y176.385 E1.91968
G1 X154.554 Y173.617 E2.0751
G1 X154.723 Y173.356 E2.08958
G1 X156.41 Y170.007 E2.26419
G1 X156.542 Y169.696 E2.27992
G1 X157.764 Y166.44 E2.44186
G1 X157.872 Y166.125 E2.45736
G1 X158.934 Y162.362 E2.63943
G1 X159.79 Y158.417 E2.8274
G1 X159.92 Y157.702 E2.86124
G1 X160.579 Y153.865 E3.04252
G1 X161.239 Y149.385 E3.25338
G1 X161.89 Y144.349 E3.48983
G1 X162.35 Y140.007 E3.69314
G1 X162.535 Y137.74 E3.79905
G1 X162.639 Y136.09 E3.87604
G1 X162.77 Y133.397 E4.00158
G1 X162.839 Y132.45 E4.0458
G1 X162.911 Y131.786 E4.0769
G1 X162.929 Y131.356 E4.09694
G1 X162.833 Y130.959 E4.11596
G1 X162.239 Y129.989 E4.16892
G1 X161.985 Y129.745 E4.18532
G1 X161.71 Y129.641 E4.19901
G1 X161.182 Y129.632 E4.2236
G1 X152.774 Y130.324 E4.61643
G1 X151.741 Y130.5 E4.66523
G1 X151.444 Y130.677 E4.68133
G1 X151.197 Y130.967 E4.69907
G1 X150.822 Y131.872 E4.74468
G1 X150.55 Y133.159 E4.80593
G1 X150.235 Y133.911 E4.8439
G1 X149.698 Y134.573 E4.88359
G1 X148.967 Y135.026 E4.92363
G1 X148.26 Y135.112 E4.9568
G1 X148.065 Y135.089 E4.96594
G1 X147.375 Y134.855 E4.99987
G1 X146.758 Y134.23 E5.04076
G1 X146.451 Y133.565 E5.07487
G1 X146.282 Y132.782 E5.11217
G1 X146.214 Y131.917 E5.15257
G1 X146.215 Y130.807 E5.20425
G1 X146.33 Y128.312 E5.32056
G1 X146.42 Y125.823 E5.43653
G1 X146.379 Y121.144 E5.65441
G1 X146.267 Y116.342 E5.87807
G1 X146.267 Y111.876 E6.08603
G1 X146.25 Y109.701 E6.18731
G1 X146.195 Y106.246 E6.34821
G1 X146.181 Y104.824 E6.41443
G1 X146.216 Y103.656 E6.46884
G1 X146.556 Y102.617 E6.51974
G1 X147.163 Y102.024 E6.55926
G1 X147.839 Y101.749 E6.59324
G1 X148.018 Y101.711 E6.60176
G1 X148.662 Y101.715 E6.63175
G1 X149.296 Y102 E6.66412
G1 X149.807 Y102.5 E6.69741
G1 X150.175 Y103.1 E6.73018
G1 X150.542 Y104.136 E6.78136
G1 X150.767 Y105.036 E6.82456
G1 X151.129 Y105.842 E6.8657
G1 X151.568 Y106.396 E6.89861
G1 X151.77 Y106.493 E6.90905
G1 X152.242 Y106.576 E6.93136
G1 X153.072 Y106.638 E6.97012
G1 X154.388 Y106.712 E7.03149
G1 X157.339 Y106.907 E7.1692
G1 X160.817 Y107.206 E7.33175
G1 X161.361 Y107.231 E7.35711
G1 X161.989 Y107.134 E7.3867
G1 X162.576 Y106.826 E7.41756
G1 X163.009 Y106.346 E7.44767
G1 X163.208 Y105.58 E7.48452
G1 X163.189 Y105.182 E7.50307
G1 X163.182 Y105.051 E7.50918
G1 X163.045 Y104.295 E7.54496
G1 X162.671 Y99.475 E7.77007
G1 X162.422 Y96.619 E7.90356
G1 X162.099 Y93.709 E8.0399
G1 X161.273 Y87.203 E8.34527
G1 X160.748 Y83.284 E8.52939
G1 X160.299 Y80.391 E8.66571
G1 X160.114 Y79.323 E8.71618
G1 X159.595 Y76.588 E8.84581
G1 X158.888 Y73.509 E8.99291
G1 X158.111 Y70.88 E9.12056
G1 X157.16 Y68.469 E9.24125
G1 X156.564 Y67.128 E9.30958
G1 X155.878 Y65.638 E9.38596
G1 X154.352 Y62.615 E9.54364
G1 X153.495 Y61.173 E9.62175
G1 X152.682 Y60.013 E9.68771
G1 X150.972 Y58.139 E9.80584
G1 X149.296 Y56.571 E9.91271
G1 X147.604 Y55.278 E10.01187
G1 X145.813 Y54.19 E10.10945
G1 X143.832 Y53.262 E10.21131
G1 X141.545 Y52.426 E10.3247
G1 X138.942 Y51.653 E10.45113
G1 X136.171 Y50.964 E10.58409
G1 X133.325 Y50.393 E10.71925
G1 X131.882 Y50.17 E10.78724
G1 X128.503 Y49.876 E10.94518
G1 X125.283 Y49.866 E11.09512
G1 X120.482 Y49.919 E11.31868
G1 X118.235 Y49.93 E11.42332
G1 X103.383 Y49.911 E12.11489
G1 X100.617 Y49.957 E12.2437
G1 X98.068 Y50.049 E12.36247
G1 X95.769 Y50.195 E12.46974
G1 X93.721 Y50.408 E12.56562
G1 X92.363 Y50.614 E12.62957
G1 X89.526 Y51.286 E12.76533
G1 X86.719 Y52.309 E12.90445
G1 X83.75 Y53.722 E13.05755
G1 X83.506 Y53.857 E13.07054
G1 X80.748 Y55.509 E13.22024
G1 X80.49 Y55.683 E13.23473
G1 X79.154 Y56.656 E13.31169
G1 X77.616 Y57.961 E13.40561
G1 X76.421 Y59.16 E13.48443
G1 X76.201 Y59.394 E13.49939
G1 X75.109 Y60.701 E13.5787
G1 X74.88 Y61.018 E13.59691
G1 X73.934 Y62.38 E13.67412
G1 X72.891 Y64.198 E13.77172
G1 X72.04 Y65.981 E13.86371
G1 X71.28 Y67.876 E13.95879
G1 X71.199 Y68.113 E13.97045
G1 X70.094 Y71.648 E14.14291
G1 X70.015 Y71.923 E14.15623
G1 X69.104 Y75.762 E14.33995
G1 X69.019 Y76.173 E14.3595
G1 X68.357 Y79.617 E14.5228
G1 X67.84 Y82.729 E14.66969
G1 X67.062 Y88.628 E14.94675
G1 X67.006 Y89.157 E14.97152
G1 X66.73 Y92.086 E15.10852
G1 X66.448 Y95.898 E15.2865
G1 X66.102 Y101.959 E15.56919
G1 X65.878 Y107.737 E15.83844
G1 X65.801 Y113.138 E16.08996
G1 X65.86 Y118.228 E16.32698
G1 X65.789 Y123.707 E16.58213
G1 X65.865 Y129.019 E16.82951
G1 X66.053 Y134.188 E17.07035
G1 X66.563 Y144.784 E17.56432
G1 X66.939 Y149.734 E17.79548
G1 X67.549 Y154.394 E18.01432
G1 X67.614 Y154.783 E18.03268
G1 X68.427 Y159.104 E18.23742
G1 X68.523 Y159.579 E18.25998
G1 X69.631 Y164.306 E18.48606
G1 X71.044 Y168.814 E18.70604
G1 X72.014 Y171.122 E18.82261
G1 X73.164 Y173.332 E18.93862
G1 X74.495 Y175.459 E19.05545
G1 X76 Y177.46 E19.17204
G1 X77.695 Y179.338 E19.28984
G1 X79.488 Y180.984 E19.40317
G1 X81.442 Y182.42 E19.51609
G1 X83.482 Y183.604 E19.62592
G1 X85.714 Y184.597 E19.73967
G1 X88.195 Y185.438 E19.86166
G1 X90.472 Y186.028 E19.97118
G1 X92.745 Y186.482 E20.07911
G1 X95.336 Y186.845 E20.20094
G1 X98.63 Y187.055 E20.35463
G1 X100.584 Y187.077 E20.44563
G1 X108.959 Y187.036 E20.83561
G1 X114.52 Y187.053 E21.09455
G0 F6000 X114.516 Y187.453
;TYPE:WALL-OUTER
G1 F1200 X122.932 Y187.545 E21.48646
G1 X124.993 Y187.543 E21.58243
G1 X128.878 Y187.389 E21.76347
G1 X132.835 Y186.939 E21.94891
G1 X134.102 Y186.735 E22.00867
G1 X137.524 Y186.017 E22.17148
G1 X140.891 Y185.033 E22.33482
G1 X141.208 Y184.918 E22.35052
G1 X144.185 Y183.691 E22.50046
G1 X144.49 Y183.548 E22.51614
G1 X147.337 Y181.906 E22.66918
G1 X147.565 Y181.766 E22.68164
G1 X148.86 Y180.81 E22.75659
G1 X149.132 Y180.6 E22.77259
G1 X150.351 Y179.543 E22.84772
G1 X151.74 Y178.141 E22.93962
G1 X152.846 Y176.829 E23.01952
G1 X153.011 Y176.623 E23.03181
G1 X154.859 Y173.882 E23.18574
G1 X155.071 Y173.555 E23.20389
G1 X156.773 Y170.175 E23.3801
G1 X156.914 Y169.844 E23.39686
G1 X158.14 Y166.575 E23.55943
G1 X158.254 Y166.245 E23.57568
G1 X159.322 Y162.459 E23.75886
G1 X160.182 Y158.495 E23.94773
G1 X160.314 Y157.772 E23.98195
G1 X160.974 Y153.928 E24.16357
G1 X161.635 Y149.44 E24.3748
G1 X162.287 Y144.396 E24.61162
G1 X162.748 Y140.045 E24.81536
G1 X162.93 Y137.828 E24.91894
G1 X163.039 Y136.11 E24.9991
G1 X163.169 Y133.426 E25.12422
G1 X163.237 Y132.493 E25.16778
G1 X163.31 Y131.816 E25.19949
G1 X163.331 Y131.317 E25.22274
G1 X163.207 Y130.803 E25.24736
G1 X162.553 Y129.737 E25.3056
G1 X162.204 Y129.399 E25.32822
G1 X161.786 Y129.242 E25.34901
G1 X161.169 Y129.232 E25.37775
G1 X152.724 Y129.927 E25.77231
G1 X151.601 Y130.118 E25.82535
G1 X151.182 Y130.367 E25.84805
G1 X150.852 Y130.755 E25.87177
G1 X150.438 Y131.753 E25.92208
G1 X150.158 Y133.06 E25.98432
G1 X149.887 Y133.705 E26.0169
G1 X149.425 Y134.271 E26.05092
G1 X148.843 Y134.633 E26.08283
G1 X148.21 Y134.716 E26.11256
G1 X147.592 Y134.504 E26.14298
G1 X147.084 Y133.992 E26.17657
G1 X146.832 Y133.433 E26.20512
G1 X146.674 Y132.694 E26.24031
G1 X146.614 Y131.899 E26.27743
G1 X146.615 Y130.825 E26.32744
G1 X146.73 Y128.328 E26.44383
G1 X146.82 Y125.829 E26.56027
G1 X146.779 Y121.138 E26.77871
G1 X146.667 Y116.333 E27.00252
G1 X146.667 Y111.873 E27.21019
G1 X146.65 Y109.695 E27.31161
G1 X146.595 Y106.242 E27.47242
G1 X146.581 Y104.835 E27.53794
G1 X146.615 Y103.724 E27.58969
G1 X146.905 Y102.839 E27.63306
G1 X147.383 Y102.366 E27.66437
G1 X148.013 Y102.111 E27.69602
G1 X148.573 Y102.114 E27.7221
G1 X149.074 Y102.339 E27.74767
G1 X149.477 Y102.73 E27.77382
G1 X149.815 Y103.275 E27.80368
G1 X150.17 Y104.286 E27.85357
G1 X150.387 Y105.167 E27.89582
G1 X150.785 Y106.052 E27.94101
G1 X151.312 Y106.716 E27.98048
G1 X151.646 Y106.878 E27.99776
G1 X152.193 Y106.974 E28.02362
G1 X153.019 Y107.034 E28.06219
G1 X154.362 Y107.111 E28.12483
G1 X157.307 Y107.306 E28.26226
G1 X158.556 Y107.408 E28.32061
G1 X160.79 Y107.605 E28.42504
G1 X161.383 Y107.633 E28.45268
G1 X162.116 Y107.519 E28.48722
G1 X162.825 Y107.147 E28.52451
G1 X163.372 Y106.542 E28.56248
G1 X163.61 Y105.621 E28.60678
G1 X163.589 Y105.162 E28.62817
G1 X163.58 Y105.005 E28.6355
G1 X163.444 Y104.264 E28.67058
G1 X163.069 Y99.44 E28.89588
G1 X162.811 Y96.492 E29.03368
G1 X162.496 Y93.659 E29.16641
G1 X161.669 Y87.15 E29.47193
G1 X161.144 Y83.227 E29.65623
G1 X160.664 Y80.141 E29.80165
G1 X160.533 Y79.389 E29.8372
G1 X159.987 Y76.506 E29.97383
G1 X159.275 Y73.407 E30.12189
G1 X158.489 Y70.75 E30.25091
G1 X157.529 Y68.315 E30.37279
G1 X156.928 Y66.963 E30.44168
G1 X156.238 Y65.464 E30.51852
G1 X154.703 Y62.423 E30.67714
G1 X153.831 Y60.956 E30.75661
G1 X152.995 Y59.763 E30.82444
G1 X151.257 Y57.858 E30.94451
G1 X149.555 Y56.265 E31.05306
G1 X147.83 Y54.947 E31.15415
G1 X146.002 Y53.837 E31.25373
G1 X143.986 Y52.892 E31.35741
G1 X141.671 Y52.046 E31.47218
G1 X139.047 Y51.267 E31.59963
G1 X136.259 Y50.574 E31.7334
G1 X133.395 Y49.999 E31.86942
G1 X131.93 Y49.772 E31.93846
G1 X128.625 Y49.485 E32.09293
G1 X128.365 Y49.476 E32.10504
G1 X125.281 Y49.466 E32.24865
G1 X120.48 Y49.519 E32.47222
G1 X118.235 Y49.53 E32.57675
G1 X103.38 Y49.511 E33.26847
G1 X100.607 Y49.557 E33.39761
G1 X98.048 Y49.649 E33.51684
G1 X95.735 Y49.796 E33.62476
G1 X93.67 Y50.011 E33.72144
G1 X92.287 Y50.221 E33.78657
G1 X89.411 Y50.902 E33.92419
G1 X86.564 Y51.939 E34.06528
G1 X83.566 Y53.366 E34.21989
G1 X83.306 Y53.511 E34.23375
G1 X80.533 Y55.171 E34.38424
G1 X80.26 Y55.355 E34.39957
G1 X78.906 Y56.342 E34.47759
G1 X77.344 Y57.667 E34.57297
G1 X76.133 Y58.882 E34.65285
G1 X75.901 Y59.129 E34.66863
G1 X74.793 Y60.455 E34.74909
G1 X74.597 Y60.725 E34.76462
G1 X73.596 Y62.166 E34.84632
G1 X72.537 Y64.012 E34.94542
G1 X71.674 Y65.82 E35.03871
G1 X70.905 Y67.736 E35.13484
G1 X70.819 Y67.988 E35.14724
G1 X69.711 Y71.533 E35.32019
G1 X69.628 Y71.821 E35.33414
G1 X68.714 Y75.675 E35.51858
G1 X68.627 Y76.095 E35.53855
G1 X67.963 Y79.547 E35.70224
G1 X67.444 Y82.67 E35.84965
G1 X66.665 Y88.58 E36.12723
G1 X66.608 Y89.117 E36.15237
G1 X66.332 Y92.052 E36.28964
G1 X66.049 Y95.872 E36.468
G1 X65.702 Y101.94 E36.75102
G1 X65.478 Y107.727 E37.02069
G1 X65.401 Y113.138 E37.27267
G1 X65.46 Y118.223 E37.50946
G1 X65.389 Y123.707 E37.76484
G1 X65.465 Y129.029 E38.01268
G1 X65.653 Y134.205 E38.25386
G1 X66.164 Y144.809 E38.7482
G1 X66.541 Y149.775 E38.9801
G1 X67.153 Y154.453 E39.19979
G1 X67.22 Y154.853 E39.21867
G1 X68.035 Y159.18 E39.4237
G1 X68.132 Y159.664 E39.44668
G1 X69.244 Y164.407 E39.67352
G1 X69.336 Y164.721 E39.68876
G1 X70.668 Y168.952 E39.89531
G1 X71.652 Y171.292 E40.01351
G1 X72.816 Y173.531 E40.13101
G1 X74.165 Y175.686 E40.2494
G1 X75.694 Y177.718 E40.36781
G1 X77.411 Y179.62 E40.48712
G1 X79.234 Y181.294 E40.60237
G1 X81.222 Y182.755 E40.71725
G1 X83.3 Y183.961 E40.82912
G1 X85.568 Y184.97 E40.94471
G1 X88.081 Y185.822 E41.06827
G1 X90.382 Y186.418 E41.17895
G1 X92.678 Y186.876 E41.28797
G1 X95.296 Y187.243 E41.41107
G1 X98.615 Y187.455 E41.56593
G1 X100.583 Y187.477 E41.65757
G1 X108.958 Y187.436 E42.04755
G1 X114.516 Y187.453 E42.30636
G0 F6000 X114.515 Y186.692
;TYPE:SKIN
G1 F1200 X122.937 Y186.785 E42.69854
G1 X124.978 Y186.783 E42.79358
G1 X128.817 Y186.63 E42.97248
G1 X132.73 Y186.186 E43.15586
G1 X133.961 Y185.987 E43.21392
G1 X137.338 Y185.278 E43.3746
G1 X140.655 Y184.309 E43.53551
G1 X140.931 Y184.208 E43.54919
G1 X143.877 Y182.995 E43.69754
G1 X144.137 Y182.873 E43.71092
G1 X147.086 Y181.173 E43.86942
G1 X148.317 Y180.266 E43.94062
G1 X148.649 Y180.01 E43.96014
G1 X149.83 Y178.987 E44.03289
G1 X151.178 Y177.626 E44.12209
G1 X152.212 Y176.403 E44.19666
G1 X152.398 Y176.169 E44.21058
G1 X154.411 Y173.176 E44.37854
G1 X156.082 Y169.856 E44.55161
G1 X156.214 Y169.547 E44.56725
G1 X157.423 Y166.318 E44.7278
G1 X157.527 Y166.019 E44.74254
G1 X158.583 Y162.274 E44.92373
G1 X159.436 Y158.346 E45.11089
G1 X159.565 Y157.638 E45.1444
G1 X160.223 Y153.806 E45.32545
G1 X160.882 Y149.334 E45.53593
G1 X161.532 Y144.308 E45.77191
G1 X161.991 Y139.975 E45.97481
G1 X162.171 Y137.773 E46.07768
G1 X162.28 Y136.073 E46.157
G1 X162.409 Y133.393 E46.28194
G1 X162.479 Y132.44 E46.32644
G1 X162.551 Y131.761 E46.35823
G1 X162.566 Y131.396 E46.37524
G1 X162.494 Y131.097 E46.38956
G1 X161.956 Y130.219 E46.43751
G1 X161.786 Y130.055 E46.44851
G1 X161.643 Y130.001 E46.45563
G1 X161.197 Y129.993 E46.4764
G1 X152.821 Y130.682 E46.86774
G1 X151.866 Y130.846 E46.91285
G1 X151.678 Y130.958 E46.92304
G1 X151.507 Y131.156 E46.93523
G1 X151.169 Y131.977 E46.97657
G1 X150.889 Y133.281 E47.03867
G1 X150.546 Y134.102 E47.0801
G1 X149.942 Y134.843 E47.12462
G1 X149.204 Y135.308 E47.16524
G1 X148.957 Y135.389 E47.17734
G1 X148.273 Y135.472 E47.20942
G1 X148.019 Y135.449 E47.2213
G1 X147.297 Y135.204 E47.2568
G1 X147.106 Y135.093 E47.26709
G1 X146.441 Y134.418 E47.31121
G1 X146.111 Y133.683 E47.34873
G1 X145.923 Y132.826 E47.38958
G1 X145.856 Y131.959 E47.43007
G1 X145.855 Y130.79 E47.4845
G1 X145.97 Y128.297 E47.60071
G1 X146.059 Y125.819 E47.71617
G1 X146.019 Y121.151 E47.93354
G1 X145.907 Y116.352 E48.15707
G1 X145.906 Y111.737 E48.37196
G1 X145.896 Y110.222 E48.44251
G1 X145.835 Y106.254 E48.62729
G1 X145.821 Y104.844 E48.69295
G1 X145.866 Y103.569 E48.75236
G1 X146.175 Y102.619 E48.79888
G1 X146.321 Y102.344 E48.81337
G1 X146.953 Y101.726 E48.85453
G1 X147.865 Y101.353 E48.90041
G1 X148.603 Y101.355 E48.93478
G1 X148.851 Y101.408 E48.94659
G1 X149.518 Y101.708 E48.98064
G1 X150.082 Y102.257 E49.01729
G1 X150.508 Y102.952 E49.05525
G1 X150.91 Y104.104 E49.11206
G1 X151.11 Y104.919 E49.15114
G1 X151.44 Y105.651 E49.18853
G1 X151.825 Y106.135 E49.21733
G1 X152.289 Y106.218 E49.23928
G1 X153.089 Y106.277 E49.27663
G1 X154.405 Y106.352 E49.33801
G1 X157.356 Y106.547 E49.47572
G1 X158.619 Y106.65 E49.53472
G1 X160.841 Y106.846 E49.63859
G1 X161.338 Y106.869 E49.66176
G1 X161.873 Y106.785 E49.68697
G1 X162.355 Y106.534 E49.71228
G1 X162.68 Y106.174 E49.73486
G1 X162.845 Y105.538 E49.76546
G1 X162.829 Y105.198 E49.78131
G1 X162.823 Y105.092 E49.78625
G1 X162.694 Y104.391 E49.81944
G1 X162.315 Y99.538 E50.0461
G1 X162.054 Y96.567 E50.18498
G1 X161.749 Y93.815 E50.31391
G1 X160.923 Y87.302 E50.61961
G1 X160.392 Y83.334 E50.80602
G1 X159.913 Y80.265 E50.95066
G1 X159.759 Y79.39 E50.99203
G1 X159.241 Y76.662 E51.12133
G1 X158.538 Y73.599 E51.26766
G1 X157.77 Y70.998 E51.39394
G1 X156.828 Y68.608 E51.51356
G1 X156.164 Y67.12 E51.58944
G1 X155.553 Y65.795 E51.65738
G1 X154.035 Y62.789 E51.81419
G1 X153.192 Y61.369 E51.89108
G1 X152.401 Y60.242 E51.95519
G1 X150.715 Y58.394 E52.07168
G1 X149.061 Y56.845 E52.17719
G1 X147.399 Y55.576 E52.27456
G1 X145.64 Y54.508 E52.37039
G1 X143.693 Y53.595 E52.47052
G1 X141.418 Y52.762 E52.58333
G1 X138.847 Y52.002 E52.70817
G1 X136.092 Y51.316 E52.84037
G1 X133.26 Y50.748 E52.97487
G1 X131.837 Y50.527 E53.04192
G1 X128.497 Y50.236 E53.19803
